UX/img/altimeter_flag_sky.svg

<?xml version="1.0" encoding="UTF-8" standalone="no"?>
<svg xmlns:osb="http://www.openswatchbook.org/uri/2009/osb"
   xmlns:dc="http://purl.org/dc/elements/1.1/"
   xmlns:cc="http://creativecommons.org/ns#"
   xmlns:rdf="http://www.w3.org/1999/02/22-rdf-syntax-ns#"
   xmlns:svg="http://www.w3.org/2000/svg"
   xmlns="http://www.w3.org/2000/svg" version="1.1" x="0px" y="0px" viewBox="0 0 375 375" enable-background="new 0 0 375 375" xml:space="preserve" id="svg21">
   <path id="window" style="fill:#0081d4;fill-opacity:1;stroke:none;stroke-width:0.2;stroke-linecap:butt;stroke-linejoin:miter;stroke-miterlimit:4;stroke-dasharray:none;stroke-opacity:1" d="m 166.66,216.04001 c 14.26535,8.29083 28.77551,7.18508 41.68,0.04 L 233.43301,257.987 C 206.3729,275.30381 171.31428,275.1354 141.65,258.04 l 25.01,-42 z" />
   <g id="cloud" transform="matrix(0.09459535,0,0,0.09854335,166.82403,228.84821)" style="fill:#ffffff;fill-opacity:1">
      <path d="m 383.60547,120.3125 c -5.85156,0.004 -11.6875,0.58594 -17.42578,1.74609 C 361.85547,100.47656 347.875,82.066406 328.25,72.101562 308.62109,62.136719 285.50781,61.714844 265.53125,70.960938 247.45313,21.167969 192.42969,-4.546875 142.63281,13.535156 92.835938,31.613281 67.125,86.636719 85.203125,136.43359 41.582031,137.8125 7.125,173.91406 7.78125,217.55469 c 0.652344,43.63672 36.179688,78.6914 79.824219,78.75781 H 383.60547 c 48.60156,0 88,-39.39844 88,-88 0,-48.59766 -39.39844,-88 -88,-88 z m 0,0" fill="#a3d4f7" id="path955" style="fill:#ffffff;fill-opacity:1" />
      <path d="m 383.60547,112.3125 c -3.83203,0.004 -7.66016,0.23438 -11.46485,0.69141 C 361.8125,79.371094 330.78516,56.386719 295.60547,56.3125 286.84766,56.304688 278.15234,57.757812 269.875,60.609375 249.38672,16.308594 200.83203,-7.769531 153.16797,2.738281 105.5,13.246094 71.570312,55.503906 71.605469,104.3125 c 0.0039,8.43359 1.054687,16.83594 3.117187,25.00781 -45.414062,6.9336 -77.859375,47.63672 -74.484375,93.45313 3.371094,45.82031 41.425781,81.33593 87.367188,81.53906 H 383.60547 c 53.01953,0 96,-42.98047 96,-96 0,-53.01953 -42.98047,-96 -96,-96 z m 0,176 H 87.605469 C 48.164062,288.48437 15.9375,256.87109 15.347656,217.43359 c -0.585937,-39.4375 30.683594,-71.99609 70.113282,-73 2.558593,-0.0703 4.929687,-1.36328 6.375,-3.47656 1.449218,-2.11328 1.796874,-4.78906 0.9375,-7.20312 C 76.894531,88.3125 100.51563,38.550781 145.76172,22.121094 c 45.24609,-16.429688 95.29297,6.589844 112.26562,51.632812 0.77735,2.089844 2.38672,3.757813 4.44532,4.609375 2.0625,0.851563 4.3789,0.804688 6.40234,-0.128906 8.375,-3.894531 17.49609,-5.914063 26.73047,-5.921875 30.4375,0.05469 56.64844,21.496094 62.72656,51.32031 0.8711,4.33594 5.09375,7.14063 9.42578,6.26563 5.21485,-1.04688 10.52344,-1.57813 15.84766,-1.58594 44.18359,0 80,35.82031 80,80 0,44.18359 -35.81641,80 -80,80 z m 0,0" id="path957" style="fill:#ffffff;fill-opacity:1" />
   </g>
   <text id="alt_depth" style="font-style:normal;font-variant:normal;font-weight:normal;font-stretch:normal;font-size:16px;font-family:Arial;-inkscape-font-specification:Arial;fill:#000000;fill-opacity:1;stroke:#ffffff;stroke-width:0.5;stroke-miterlimit:10" transform="translate(268.0971,194.5012)" x="26.947266" y="0">
      <tspan style="font-style:normal;font-variant:normal;font-weight:normal;font-stretch:normal;font-size:16px;font-family:Arial;-inkscape-font-specification:Arial;text-align:end;text-anchor:end;fill:#ffffff;fill-opacity:1" id="tspan851">ALTITUDE</tspan>
   </text>
</svg>

<?xml version="1.0" encoding="UTF-8"?>
<svg enable-background="new 0 0 375 375" version="1.1" viewBox="0 0 375 375" xmlns="http://www.w3.org/2000/svg">
 <g>
  <path d="m166.66 216.04c14.265 8.2908 28.776 7.1851 41.68 0.04l25.093 41.907c-27.06 17.317-62.119 17.148-91.783 0.053l25.01-42z" fill="#0081d4"/>
  <g transform="matrix(.094595 0 0 .098543 166.82 228.85)" fill="#fff">
   <path d="m383.61 120.31c-5.8516 4e-3 -11.688 0.58594-17.426 1.7461-4.3242-21.582-18.305-39.992-37.93-49.957-19.629-9.9648-42.742-10.387-62.719-1.1406-18.078-49.793-73.102-75.508-122.9-57.426-49.797 18.078-75.508 73.102-57.43 122.9-43.621 1.3789-78.078 37.48-77.422 81.121 0.65234 43.637 36.18 78.691 79.824 78.758h296c48.602 0 88-39.398 88-88 0-48.598-39.398-88-88-88z"/>
   <path d="m383.61 112.31c-3.832 4e-3 -7.6602 0.23438-11.465 0.69141-10.328-33.633-41.355-56.617-76.535-56.691-8.7578-0.007812-17.453 1.4453-25.73 4.2969-20.488-44.301-69.043-68.379-116.71-57.871-47.668 10.508-81.598 52.766-81.563 101.57 0.0039 8.4336 1.0547 16.836 3.1172 25.008-45.414 6.9336-77.859 47.637-74.484 93.453 3.3711 45.82 41.426 81.336 87.367 81.539h296c53.02 0 96-42.98 96-96s-42.98-96-96-96zm0 176h-296c-39.441 0.17187-71.668-31.441-72.258-70.879-0.58594-39.438 30.684-71.996 70.113-73 2.5586-0.0703 4.9297-1.3633 6.375-3.4766 1.4492-2.1133 1.7969-4.7891 0.9375-7.2031-15.879-45.441 7.7422-95.203 52.988-111.63 45.246-16.43 95.293 6.5898 112.27 51.633 0.77735 2.0898 2.3867 3.7578 4.4453 4.6094 2.0625 0.85156 4.3789 0.80469 6.4023-0.12891 8.375-3.8945 17.496-5.9141 26.73-5.9219 30.438 0.05469 56.648 21.496 62.727 51.32 0.8711 4.3359 5.0938 7.1406 9.4258 6.2656 5.2148-1.0469 10.523-1.5781 15.848-1.5859 44.184 0 80 35.82 80 80 0 44.184-35.816 80-80 80z"/>
  </g>
  <text transform="translate(268.1 194.5)" x="26.947266" fill="#000000" font-family="Arial" font-size="16px" stroke="#ffffff" stroke-miterlimit="10" stroke-width=".5"><tspan fill="#ffffff" font-family="Arial" font-size="16px" text-align="end" text-anchor="end">ALTITUDE</tspan></text>
 </g>
</svg>
